X:1
T: 012 - Louvamos
T: Letra: Richard Holden (1828-1886)
T: Música: John Francis Wade (1710-1786)
M:4/4
L:1/8
K:A
V:1
A2| "A"A4 E2 A2| "E"B4 E2 E2| "A"(c2 B2) c2 d2| "E"c4 B2 B2| "F#m"A4 "B7"G2 F2| "E"(G2 A2) B2 c2| "B7"G4 F3E|"E7"E4 E2 E2| "A"e4 d2 c2|  "D"d4 "A"c2 c2| "B7"(B2 c2) A2 B2| "E7"G3 F E2 A2| "A"(A2 G2) "D"A2 B2| "A"A4 "E"E2 c2| "A"(c2 B2) "D"c2 d2| "A"c4 "E"B2 c2| "D"(d2 c2) B2 A2| "E"G4 "A"A2 d2| "A/E"c4 "E7"B3A| "A"A4 z2 |]
w: 1.~Lou-va-mos, lou-va-mos, Se-nhor e a-do-ra-mos A ti, ó Deus-Ho_mem, no céu as-sen-ta-do; Queem tem-po de-vi-do, na ter_rahu-mi-lha_do, Por nos_sos pe-ca-dos mor-res_te na cruz_ Por nos_sos pe-ca-dos mor-res-te na cruz
w: 2.~Lou-va-mos, lou-va-mos, Se-nhor, e a-do-ra-mos A ti, quea jus-ti_ça de Deus sus-ten-tas-te, A pe-na so-fren-do por nós_ me-re-ci_da, A vi_da de-pon-do praas-sim_ nos re-mir._ A vi_da de-pon-do praas-sim nos re-mir.
w: 3.~Lou-va-mos, lou-va-mos, Se-nhor, e a-do-ra-mos A gló-ria di-vi_na por ti re-ve-la-da, Que pa-ra nós bri-lha na luz_ es-plen-den_te, Fa-zen_do-nos ver a re-al_ per-fei-ção._ Fa-zen_do-nos ver a re-al per-fei-ção.
w: 4.~Em ti con-ci-li-a-sea san_ta jus-ti-ça, Que não po-dea cul_pa dei-xar sem cas-ti-go. Com a com-pai-xão que por gra_ça re-ce_be Ee-xi_me de cul-pas o réu_ pe-ca-dor._ Ee-xi_me de cul-pas o réu pe-ca-dor.
W: 
W:
W: 1. Louvamos, louvamos, Senhor e adoramos
W: A ti, ó Deus-Homem, no céu assentado;
W: Que em tempo devido, na terra humilhado,
W: Por nossos pecados morreste na cruz. (bis)
W: 
W: 2. Louvamos, louvamos, Senhor, e adoramos
W: A ti, que a justiça de Deus sustentaste,
W: A pena sofrendo por nós merecida,
W: A vida depondo pra assim nos remir. (bis)
W: 
W:
W:
W: 3. Louvamos, louvamos, Senhor, e adoramos
W: A glória divina por ti revelada,
W: Que para nós brilha na luz esplendente,
W: Fazendo-nos ver a real perfeição. (bis)
W: 
W: 4. Em ti concilia-se a santa justiça,
W: Que não pode a culpa deixar sem castigo.
W: Com a compaixão que por graça recebe
W: E exime de culpas o réu pecador. (bis)
W: 





%wordsfont Times-Roman 13.0
%vocalfont Times-Roman 13.0
